X:177
M:6/8
L:1/8
Q:3/8=100
K:G
g/a/|bgg g2 b|afd d2 e/f/|gfe dcB|ABc BAG|\
bgg g2 b|afd d2g|fed Ad^c|d3 D2:|
|:B/c/|dBc dge|dcB c2 A/B/|cAB cde|edc B3|\

